src/assets/outline/PenClose.svg

<?xml version="1.0" encoding="UTF-8"?>
<svg width="24" height="24" viewBox="0 0 24 24" xmlns="http://www.w3.org/2000/svg">
 <path d="m18.25 14.22c-0.19 0-0.39-0.08-0.53-0.22l-5.67-5.67c-0.25-0.25-0.29-0.63-0.1-0.93l1.77-2.8c0.48-0.77 1.23-1.24 2.09-1.34 0.95-0.11 1.96 0.28 2.74 1.06l3.18 3.18c0.75 0.75 1.12 1.75 1.01 2.75-0.1 0.87-0.56 1.6199-1.28 2.0799l-2.8 1.7701c-0.13 0.08-0.27 0.12-0.41 0.12zm-4.71-6.52 4.82 4.82 2.29-1.45c0.34-0.21 0.55-0.56 0.59-0.98 0.06-0.52998-0.16-1.1-0.58-1.52l-3.18-3.18c-0.46-0.46-1.01-0.69-1.51-0.63-0.4 0.04-0.74 0.26996-0.98 0.64996l-1.45 2.29z"/>
 <path d="m6.6301 22.75c-0.94 0-1.77-0.3299-2.39-0.9499-0.72-0.72-1.04-1.7301-0.91-2.8501l0.97999-8.28c0.05-0.41 0.41-0.69997 0.83-0.66 0.41 0.05 0.71001 0.42 0.66001 0.83l-0.98 8.28c-0.08 0.65 0.09 1.22 0.48 1.61s0.96999 0.57 1.63 0.49l8.72-1.03c1.86-0.22 2.27-0.72 2.09-2.54l-0.24-4.15c-0.02-0.41 0.29-0.77 0.71-0.79 0.41-0.02 0.77 0.2901 0.79 0.7101l0.24 4.12c0.26 2.58-0.76 3.8299-3.41 4.1499l-8.72 1.03c-0.16 0.02-0.32 0.03-0.48 0.03z"/>
 <path d="m12.58 8.5602h-0.05l-1.75-0.10999c-0.41-0.03-0.73-0.37999-0.7-0.79999 0.03-0.41 0.38-0.73001 0.8-0.70001l1.75 0.10999c0.41 0.03 0.73 0.37998 0.7 0.79998-0.03 0.39-0.36 0.70002-0.75 0.70002z"/>
 <path d="m5.2802 21.53c-0.19 0-0.38-0.0699-0.53-0.2199-0.29-0.29-0.29-0.7701 0-1.0601l3.18-3.1801c0.29-0.29 0.77001-0.29 1.06 0s0.29 0.7701 0 1.0601l-3.18 3.1801c-0.15 0.15-0.34 0.2199-0.53 0.2199z"/>
 <path d="m6.5 11.75c-0.59 0-1.16-0.1-1.69-0.28-1.16-0.39-2.16-1.19-2.8-2.26-0.5-0.82-0.75999-1.76-0.75999-2.71 0-1.62 0.72-3.11 1.98-4.1 0.92-0.74 2.08-1.15 3.27-1.15 2.9 0 5.25 2.36 5.25 5.25 0 0.47-0.07 0.95997-0.2 1.41-0.13 0.46-0.31 0.88005-0.56 1.3-0.29 0.48-0.64 0.88998-1.05 1.24-0.94 0.84-2.16 1.3-3.44 1.3zm0-9c-0.85 0-1.68 0.29001-2.34 0.82001-0.9 0.71-1.41 1.77-1.41 2.93 0 0.67 0.18999 1.34 0.53999 1.93 0.46 0.76 1.17 1.34 2 1.61 1.21 0.43 2.66 0.16 3.67-0.73 0.29-0.25 0.54-0.55001 0.75-0.88001 0.18-0.3 0.30999-0.59999 0.39999-0.92999s0.14-0.67 0.14-1c0-2.07-1.68-3.75-3.75-3.75z"/>
 <path d="m7.6998 8.4302c-0.19 0-0.38-0.06997-0.53-0.21997l-2.38-2.38c-0.29-0.29-0.29-0.77 0-1.06s0.77001-0.29 1.06 0l2.38 2.38c0.29 0.29 0.29 0.77 0 1.06-0.14 0.14-0.34 0.21997-0.53 0.21997z"/>
 <path d="m5.3002 8.4498c-0.19 0-0.38-0.07003-0.53-0.22003-0.29-0.29-0.29-0.77 0-1.06l2.38-2.38c0.29-0.29 0.77002-0.29 1.06 0s0.29 0.76999 0 1.06l-2.38 2.38c-0.15 0.15-0.34 0.22003-0.53 0.22003z"/>
</svg>

<svg width="24" height="24" viewBox="0 0 24 24"  xmlns="http://www.w3.org/2000/svg">
<path d="M18.2502 14.22C18.0602 14.22 17.8602 14.14 17.7202 14L12.0502 8.33001C11.8002 8.08001 11.7602 7.70001 11.9502 7.40001L13.7202 4.59996C14.2002 3.82996 14.9502 3.36 15.8102 3.26C16.7602 3.15 17.7702 3.54 18.5502 4.32L21.7302 7.49999C22.4802 8.24999 22.8502 9.24999 22.7402 10.25C22.6402 11.12 22.1802 11.8699 21.4602 12.3299L18.6602 14.1C18.5302 14.18 18.3902 14.22 18.2502 14.22ZM13.5402 7.7L18.3602 12.52L20.6502 11.07C20.9902 10.86 21.2002 10.51 21.2402 10.09C21.3002 9.56002 21.0802 8.99 20.6602 8.57L17.4802 5.39C17.0202 4.93 16.4702 4.7 15.9702 4.76C15.5702 4.8 15.2302 5.02996 14.9902 5.40996L13.5402 7.7Z" />
<path d="M6.63008 22.75C5.69008 22.75 4.86008 22.4201 4.24008 21.8001C3.52008 21.0801 3.20008 20.07 3.33008 18.95L4.31007 10.67C4.36007 10.26 4.72007 9.97003 5.14007 10.01C5.55007 10.06 5.85008 10.43 5.80008 10.84L4.82008 19.12C4.74008 19.77 4.91008 20.34 5.30008 20.73C5.69008 21.12 6.27007 21.3 6.93007 21.22L15.6501 20.19C17.5101 19.97 17.9201 19.47 17.7401 17.65L17.5001 13.5C17.4801 13.09 17.7901 12.73 18.2101 12.71C18.6201 12.69 18.9801 13.0001 19.0001 13.4201L19.2401 17.5401C19.5001 20.1201 18.4801 21.37 15.8301 21.69L7.11008 22.72C6.95008 22.74 6.79008 22.75 6.63008 22.75Z" />
<path d="M12.5801 8.56018C12.5601 8.56018 12.5501 8.56018 12.5301 8.56018L10.7801 8.45019C10.3701 8.42019 10.0501 8.0702 10.0801 7.6502C10.1101 7.2402 10.4601 6.92019 10.8801 6.95019L12.6301 7.06018C13.0401 7.09018 13.3601 7.44016 13.3301 7.86016C13.3001 8.25016 12.9701 8.56018 12.5801 8.56018Z" />
<path d="M5.28021 21.5301C5.09021 21.5301 4.90021 21.4602 4.75021 21.3102C4.46021 21.0202 4.46021 20.5401 4.75021 20.2501L7.93021 17.07C8.22021 16.78 8.70022 16.78 8.99022 17.07C9.28022 17.36 9.28022 17.8401 8.99022 18.1301L5.81021 21.3102C5.66021 21.4602 5.47021 21.5301 5.28021 21.5301Z" />
<path d="M6.5 11.75C5.91 11.75 5.34 11.65 4.81 11.47C3.65 11.08 2.64999 10.28 2.00999 9.21002C1.50999 8.39002 1.25 7.45 1.25 6.5C1.25 4.88 1.97 3.39002 3.23 2.40002C4.15 1.66002 5.31 1.25 6.5 1.25C9.4 1.25 11.75 3.61 11.75 6.5C11.75 6.97 11.68 7.45997 11.55 7.90997C11.42 8.36997 11.24 8.79002 10.99 9.21002C10.7 9.69002 10.35 10.1 9.94 10.45C9 11.29 7.78 11.75 6.5 11.75ZM6.5 2.75C5.65 2.75 4.82 3.04001 4.16 3.57001C3.26 4.28001 2.75 5.34 2.75 6.5C2.75 7.17 2.93999 7.83999 3.28999 8.42999C3.74999 9.18999 4.45999 9.76998 5.28999 10.04C6.49999 10.47 7.95001 10.2 8.96001 9.31C9.25001 9.06 9.50001 8.75999 9.71001 8.42999C9.89001 8.12999 10.02 7.83 10.11 7.5C10.2 7.17 10.25 6.83 10.25 6.5C10.25 4.43 8.57 2.75 6.5 2.75Z" />
<path d="M7.69977 8.43021C7.50977 8.43021 7.31977 8.36024 7.16977 8.21024L4.78977 5.83023C4.49977 5.54023 4.49977 5.06023 4.78977 4.77023C5.07977 4.48023 5.55978 4.48023 5.84978 4.77023L8.22977 7.15024C8.51977 7.44024 8.51977 7.92024 8.22977 8.21024C8.08977 8.35024 7.88977 8.43021 7.69977 8.43021Z" />
<path d="M5.30023 8.4498C5.11023 8.4498 4.92023 8.37977 4.77023 8.22977C4.48023 7.93977 4.48023 7.45977 4.77023 7.16977L7.15022 4.78977C7.44022 4.49977 7.92024 4.49977 8.21024 4.78977C8.50024 5.07977 8.50024 5.55976 8.21024 5.84976L5.83023 8.22977C5.68023 8.37977 5.49023 8.4498 5.30023 8.4498Z" />
</svg>
